svgs/thin/square-i.svg

<svg xmlns="http://www.w3.org/2000/svg" viewBox="0 0 448 512"><!-- Font Awesome Pro 6.0.0-alpha2 by @fontawesome - https://fontawesome.com License - https://fontawesome.com/license (Commercial License) --><path d="M384 32H64C28.654 32 0 60.654 0 96V416C0 451.346 28.654 480 64 480H384C419.346 480 448 451.346 448 416V96C448 60.654 419.346 32 384 32ZM432 416C432 442.467 410.467 464 384 464H64C37.533 464 16 442.467 16 416V96C16 69.533 37.533 48 64 48H384C410.467 48 432 69.533 432 96V416ZM312 144C316.406 144 320 140.422 320 136S316.406 128 312 128H136C131.594 128 128 131.578 128 136S131.594 144 136 144H216V368H136C131.594 368 128 371.578 128 376S131.594 384 136 384H312C316.406 384 320 380.422 320 376S316.406 368 312 368H232V144H312Z"/></svg>

<svg xmlns="http://www.w3.org/2000/svg" viewBox="0 0 448 512"><!--! Font Awesome Pro 6.3.0 by @fontawesome - https://fontawesome.com License - https://fontawesome.com/license (Commercial License) Copyright 2023 Fonticons, Inc. --><path d="M384 32H64C28.65 32 0 60.65 0 96v320c0 35.35 28.65 64 64 64h320c35.35 0 64-28.65 64-64V96C448 60.65 419.3 32 384 32zM432 416c0 26.47-21.53 48-48 48H64c-26.47 0-48-21.53-48-48V96c0-26.47 21.53-48 48-48h320c26.47 0 48 21.53 48 48V416zM312 144C316.4 144 320 140.4 320 136S316.4 128 312 128h-176C131.6 128 128 131.6 128 136S131.6 144 136 144h80v224h-80C131.6 368 128 371.6 128 376S131.6 384 136 384h176c4.406 0 8-3.578 8-8s-3.594-8-8-8h-80v-224H312z"/></svg>
